packages/ffe-icons/icons/open/400/sm/power_input.svg

<svg xmlns="http://www.w3.org/2000/svg" height="20" viewBox="0 -960 960 960" width="20"><path d="M179.77-384q-14.77 0-25.27-10.29t-10.5-25.5q0-15.21 10.35-25.71T180-456h104.23q14.77 0 25.27 10.29t10.5 25.5q0 15.21-10.35 25.71T284-384H179.77Zm248 0q-14.77 0-25.27-10.29t-10.5-25.5q0-15.21 10.35-25.71T428-456h104.23q14.77 0 25.27 10.29t10.5 25.5q0 15.21-10.35 25.71T532-384H427.77Zm248 0q-14.77 0-25.27-10.29t-10.5-25.5q0-15.21 10.35-25.71T676-456h104.23q14.77 0 25.27 10.29t10.5 25.5q0 15.21-10.35 25.71T780-384H675.77ZM180-528q-15 0-25.5-10.29t-10.5-25.5q0-15.21 10.35-25.71T180-600h600q15 0 25.5 10.29t10.5 25.5q0 15.21-10.35 25.71T780-528H180Z"/></svg>

<svg xmlns="http://www.w3.org/2000/svg" height="20" viewBox="0 -960 960 960" width="20"><path d="M179.766-384Q165-384 154.5-394.289q-10.5-10.29-10.5-25.5Q144-435 154.35-445.5 164.7-456 180-456h104.234Q299-456 309.5-445.711q10.5 10.29 10.5 25.5Q320-405 309.65-394.5 299.3-384 284-384H179.766Zm248 0Q413-384 402.5-394.289q-10.5-10.29-10.5-25.5Q392-435 402.35-445.5 412.7-456 428-456h104.234Q547-456 557.5-445.711q10.5 10.29 10.5 25.5Q568-405 557.65-394.5 547.3-384 532-384H427.766Zm248 0Q661-384 650.5-394.289q-10.5-10.29-10.5-25.5Q640-435 650.35-445.5 660.7-456 676-456h104.234Q795-456 805.5-445.711q10.5 10.29 10.5 25.5Q816-405 805.65-394.5 795.3-384 780-384H675.766ZM180-528q-15 0-25.5-10.289-10.5-10.29-10.5-25.5Q144-579 154.35-589.5 164.7-600 180-600h600q15 0 25.5 10.289 10.5 10.29 10.5 25.5Q816-549 805.65-538.5 795.3-528 780-528H180Z"/></svg>
